!!!OTL: Lord Thomas and Fair Ellinor
!!!ONM: 4.
**kern
*clefG2
*k[f#c#]
*D:
*M6/8
*MM80
{8a
=1
8a
8f#
8f#
4e
8d
=2
8d
8c#
8d
4e}
{8d
=3
8g
8g
8g
8g
8f#
8g
=4
4.a}
{4r
8d
=5
8d
8d
8d
8f#
8f#
8g
=6
4a
8a
4d}
{8a
=7
(8a
8b)
8a
8f#
8d
8e
=8
4.d}
==
*-
!!!CNT: Folksongs of Maritime Canada
!!!MRD: 1928///-1932///
!!!OCL: Helen Creighton
!!!YOR: Songs and Ballads from Nova Scotia
!!!PPR: J.M. Dent & Sons, Limited
!!!PPP: Toronto, Canada
!!!PDT: 1932///
!!!reprint: Dover Publications, 1992: ISBN 0-486-21703-5
!!!ENC1: Craig Stuart Sapp (music and bibliographic data)                       
!!!ENC2: Marcus Pearce (phrase markings and key designations)                   
!!!ENC3: Darrell Conklin (phrase markings and key designations)   
!!!END: 2002/04/10/
!!!EEV: 2004/06/05
!!!MPN: Mrs. William McNab
!!!PPG: 8
!!!EFL: 4/152
!!!ARE: Canada; Nova Scotia
!!!verses: 13
!!!VTS: 2608236111
